images/uidisplay.svg

<svg fill="none" height="114" viewBox="0 0 534 114" width="534" xmlns="http://www.w3.org/2000/svg"><path d="m29.831 90.8667c-5.8074 0-10.9511-.9126-15.4311-2.7378-4.47997-1.8252-7.9644-4.6044-10.45328-8.3378-2.48888-3.8162-3.733321-8.7525-3.733321-14.8088v-38.9509h18.542101v37.4576c0 3.9822.8712 6.9689 2.6134 8.96 1.8251 1.9081 4.6874 2.8622 8.5866 2.8622 3.9822 0 6.8444-.9541 8.5866-2.8622 1.7422-1.9911 2.6134-4.9778 2.6134-8.96v-37.4576h17.4221v38.9509c0 8.96-2.5718 15.514-7.7155 19.6622-5.1437 4.1481-12.154 6.2222-21.031 6.2222zm43.006-1.8667v-62.0975h18.5422l.1244 62.0975zm-.3733-71.5553v-14.31102h19.1644v14.31102zm95.1373 73.422c-4.895 0-9.416-.5393-13.564-1.6178-4.065-1.0785-7.591-2.8622-10.578-5.3511-2.987-2.5718-5.351-6.0563-7.093-10.4533-1.66-4.397-2.489-9.8725-2.489-16.4266 0-10.2044 2.489-18.2518 7.466-24.1421 5.061-5.8904 12.611-8.8355 22.649-8.8355 1.328 0 3.07.1244 5.227.3733 2.157.1659 4.397.6637 6.72 1.4933 2.323.8297 4.397 2.24 6.222 4.2311l-3.733 5.7244v-35.715373h18.417v72.426373c0 3.0696-.829 5.7659-2.488 8.0889-1.66 2.2399-3.9 4.1066-6.72 5.5999-2.738 1.4934-5.849 2.6134-9.334 3.36-3.484.8296-7.052 1.2445-10.702 1.2445zm.747-15.5555c2.986 0 5.392-.3734 7.217-1.12 1.909-.8297 2.863-2.0326 2.863-3.6089v-28.9954c-1.494-.8297-3.111-1.4519-4.854-1.8667-1.659-.4978-3.277-.7467-4.853-.7467-3.484 0-6.43.5808-8.835 1.7423-2.406 1.1614-4.232 3.1111-5.476 5.8488-1.161 2.7378-1.742 6.4296-1.742 11.0755 0 3.6504.498 6.803 1.493 9.4578.996 2.5718 2.613 4.6044 4.853 6.0977 2.323 1.4104 5.435 2.1156 9.334 2.1156zm42.855 13.6888v-62.0975h18.542l.125 62.0975zm-.373-71.5553v-14.31102h19.164v14.31102zm51.785 73.422c-4.48 0-8.338-.4978-11.573-1.4934-3.153-.9126-6.14-1.9496-8.96-3.1111v-16.3021c1.742 1.1615 3.692 2.3644 5.849 3.6089 2.157 1.1614 4.521 2.1155 7.093 2.8622 2.655.7466 5.434 1.12 8.338 1.12 2.986 0 5.06-.4978 6.222-1.4934 1.244-1.0785 1.867-2.3644 1.867-3.8577 0-1.4104-.623-2.5304-1.867-3.36-1.245-.9126-2.862-1.6593-4.853-2.24-1.992-.5807-4.107-1.12-6.347-1.6178-1.991-.4148-3.982-1.037-5.973-1.8666-1.992-.9126-3.775-2.1156-5.351-3.6089-1.577-1.4933-2.863-3.3185-3.858-5.4755-.913-2.24-1.369-4.9363-1.369-8.0889 0-4.0652.788-7.4252 2.364-10.08 1.577-2.7377 3.651-4.9362 6.222-6.5955 2.572-1.6592 5.352-2.8207 8.338-3.4844 2.987-.7467 5.891-1.0785 8.711-.9956 5.144.166 9.209.7467 12.196 1.7422 3.069.9126 5.849 2.1156 8.338 3.6089v14.56c-2.821-1.5763-5.642-3.0282-8.463-4.3556-2.737-1.4103-5.89-2.1155-9.457-2.1155-3.236 0-5.559.4977-6.969 1.4933-1.411.9956-2.116 2.323-2.116 3.9822 0 1.5763.457 2.8207 1.369 3.7333.996.9126 2.282 1.6593 3.858 2.24 1.576.4978 3.318.9956 5.227 1.4933 2.074.4978 4.189 1.12 6.346 1.8667 2.24.6637 4.314 1.6593 6.222 2.9867 1.991 1.2444 3.568 3.0281 4.729 5.351 1.245 2.24 1.867 5.2267 1.867 8.96-.083 5.0607-1.452 9.1259-4.107 12.1955-2.655 2.9867-6.098 5.1437-10.329 6.4711-4.148 1.2444-8.669 1.8667-13.564 1.8667zm72.852 0c-1.244 0-3.069-.1245-5.475-.3734s-4.895-.7881-7.467-1.6177c-2.572-.9126-4.77-2.2815-6.596-4.1067l3.734-5.8489v32.604h-18.169v-72.1771c0-2.7378.788-5.0608 2.364-6.9689 1.577-1.9081 3.734-3.4844 6.472-4.7289 2.737-1.2444 5.89-2.157 9.457-2.7377 3.651-.6637 7.55-.9956 11.698-.9956 6.305 0 11.822 1.0785 16.551 3.2356 4.812 2.074 8.545 5.5999 11.2 10.5777 2.738 4.9778 4.107 11.7807 4.107 20.4088 0 6.4711-1.12 12.1955-3.36 17.1733-2.24 4.8948-5.434 8.711-9.583 11.4488-4.065 2.7378-9.042 4.1067-14.933 4.1067zm-5.475-14.9333c3.318 0 6.056-.5808 8.213-1.7422 2.157-1.1615 3.775-3.0696 4.853-5.7244 1.162-2.7378 1.742-6.3882 1.742-10.9511 0-3.8163-.414-7.0518-1.244-9.7066s-2.281-4.6874-4.355-6.0978c-1.992-1.4933-4.812-2.24-8.463-2.24-3.982 0-6.844.4148-8.586 1.2445-1.66.7466-2.489 1.7422-2.489 2.9866v29.6177c1.576.9126 3.318 1.5763 5.226 1.9911 1.909.4148 3.609.6222 5.103.6222zm62.17 13.0666h-18.418v-86.73742h18.418zm38.238 1.8667c-3.816 0-7.425-.3734-10.826-1.12-3.319-.6637-6.264-1.7837-8.836-3.36-2.489-1.6593-4.438-3.8578-5.849-6.5956-1.41-2.8207-2.115-6.3051-2.115-10.4532 0-3.8993.788-7.3008 2.364-10.2044 1.66-2.9037 4.148-5.1437 7.467-6.72 3.318-1.5763 7.508-2.3645 12.569-2.3645 2.82 0 5.558.2904 8.213.8712 2.655.5807 5.019 1.3688 7.093 2.3644 2.157.9955 3.858 2.0741 5.103 3.2355l.746 8.96c-1.659-.9956-3.65-1.7837-5.973-2.3644-2.323-.5808-4.812-.8711-7.467-.8711-4.065 0-7.052.6222-8.96 1.8666-1.825 1.1615-2.737 3.0281-2.737 5.6 0 1.5763.456 2.9866 1.368 4.2311.913 1.2444 2.116 2.1985 3.609 2.8622 1.577.6637 3.194.9955 4.854.9955 4.231 0 7.176-.2903 8.835-.8711 1.742-.5807 2.613-1.7422 2.613-3.4844v-23.1466c0-3.8162-1.244-6.554-3.733-8.2133-2.406-1.7422-5.849-2.6133-10.329-2.6133-3.65 0-7.342.6637-11.075 1.9911-3.651 1.2445-6.637 2.7793-8.96 4.6044v-16.4266c2.157-1.3274 5.475-2.5718 9.955-3.7333 4.563-1.1615 9.665-1.7422 15.307-1.7422 1.991 0 4.19.1659 6.595.4978 2.406.3318 4.812.9541 7.218 1.8666 2.406.8297 4.605 2.0741 6.596 3.7334 2.074 1.6592 3.733 3.7748 4.978 6.3466 1.244 2.5718 1.866 5.7659 1.866 9.5822l-.124 29.7421c0 3.5674-1.203 6.4711-3.609 8.7111-2.406 2.157-5.89 3.7333-10.453 4.7288-4.48.9956-9.914 1.4934-16.303 1.4934zm54.381 22.5243c-2.074 0-4.106-.207-6.097-.622s-3.692-.954-5.103-1.618v-15.0577c1.328.4978 2.572.8296 3.734.9956 1.161.2488 2.364.3733 3.609.3733 2.074 0 3.857-.4978 5.351-1.4933 1.576-.9126 2.862-2.5304 3.858-4.8534.995-2.2399 1.783-5.3096 2.364-9.2088l.373 10.5777-27.004-66.453h21.28l14.311 44.1776h-1.867l14.187-44.1776h19.911l-24.764 63.9642c-2.24 5.8073-4.688 10.4114-7.343 13.8134-2.571 3.401-5.268 5.849-8.088 7.342-2.821 1.493-5.725 2.24-8.712 2.24z" fill="#000" opacity=".04"/></svg>

<svg width="534" height="114" viewBox="0 0 534 114" fill="none" xmlns="http://www.w3.org/2000/svg">
<path opacity="0.04" d="M29.831 90.8667C24.0236 90.8667 18.8799 89.9541 14.3999 88.1289C9.91993 86.3037 6.4355 83.5245 3.94662 79.7911C1.45774 75.9749 0.213299 71.0386 0.213299 64.9823V26.0314H18.7554V63.489C18.7554 67.4712 19.6266 70.4579 21.3688 72.449C23.1939 74.3571 26.0562 75.3112 29.9554 75.3112C33.9376 75.3112 36.7998 74.3571 38.542 72.449C40.2842 70.4579 41.1554 67.4712 41.1554 63.489V26.0314H58.5775V64.9823C58.5775 73.9423 56.0057 80.4963 50.862 84.6445C45.7183 88.7926 38.708 90.8667 29.831 90.8667ZM72.837 89V26.9025H91.3792L91.5036 89H72.837ZM72.4637 17.4447V3.13368H91.6281V17.4447H72.4637ZM167.601 90.8667C162.706 90.8667 158.185 90.3274 154.037 89.2489C149.972 88.1704 146.446 86.3867 143.459 83.8978C140.472 81.326 138.108 77.8415 136.366 73.4445C134.706 69.0475 133.877 63.572 133.877 57.0179C133.877 46.8135 136.366 38.7661 141.343 32.8758C146.404 26.9854 153.954 24.0403 163.992 24.0403C165.32 24.0403 167.062 24.1647 169.219 24.4136C171.376 24.5795 173.616 25.0773 175.939 25.9069C178.262 26.7366 180.336 28.1469 182.161 30.138L178.428 35.8624V0.147027H196.845V72.5734C196.845 75.643 196.016 78.3393 194.357 80.6623C192.697 82.9022 190.457 84.7689 187.637 86.2622C184.899 87.7556 181.788 88.8756 178.303 89.6222C174.819 90.4518 171.251 90.8667 167.601 90.8667ZM168.348 75.3112C171.334 75.3112 173.74 74.9378 175.565 74.1912C177.474 73.3615 178.428 72.1586 178.428 70.5823V41.5869C176.934 40.7572 175.317 40.135 173.574 39.7202C171.915 39.2224 170.297 38.9735 168.721 38.9735C165.237 38.9735 162.291 39.5543 159.886 40.7158C157.48 41.8772 155.654 43.8269 154.41 46.5646C153.249 49.3024 152.668 52.9942 152.668 57.6401C152.668 61.2905 153.166 64.4431 154.161 67.0979C155.157 69.6697 156.774 71.7023 159.014 73.1956C161.337 74.606 164.449 75.3112 168.348 75.3112ZM211.203 89V26.9025H229.745L229.87 89H211.203ZM210.83 17.4447V3.13368H229.994V17.4447H210.83ZM262.615 90.8667C258.135 90.8667 254.277 90.3689 251.042 89.3733C247.889 88.4607 244.902 87.4237 242.082 86.2622V69.9601C243.824 71.1216 245.774 72.3245 247.931 73.569C250.088 74.7304 252.452 75.6845 255.024 76.4312C257.679 77.1778 260.458 77.5512 263.362 77.5512C266.348 77.5512 268.422 77.0534 269.584 76.0578C270.828 74.9793 271.451 73.6934 271.451 72.2001C271.451 70.7897 270.828 69.6697 269.584 68.8401C268.339 67.9275 266.722 67.1808 264.731 66.6001C262.739 66.0194 260.624 65.4801 258.384 64.9823C256.393 64.5675 254.402 63.9453 252.411 63.1157C250.419 62.2031 248.636 61.0001 247.06 59.5068C245.483 58.0135 244.197 56.1883 243.202 54.0313C242.289 51.7913 241.833 49.095 241.833 45.9424C241.833 41.8772 242.621 38.5172 244.197 35.8624C245.774 33.1247 247.848 30.9262 250.419 29.2669C252.991 27.6077 255.771 26.4462 258.757 25.7825C261.744 25.0358 264.648 24.704 267.468 24.7869C272.612 24.9529 276.677 25.5336 279.664 26.5291C282.733 27.4417 285.513 28.6447 288.002 30.138V44.698C285.181 43.1217 282.36 41.6698 279.539 40.3424C276.802 38.9321 273.649 38.2269 270.082 38.2269C266.846 38.2269 264.523 38.7246 263.113 39.7202C261.702 40.7158 260.997 42.0432 260.997 43.7024C260.997 45.2787 261.454 46.5231 262.366 47.4357C263.362 48.3483 264.648 49.095 266.224 49.6757C267.8 50.1735 269.542 50.6713 271.451 51.169C273.525 51.6668 275.64 52.289 277.797 53.0357C280.037 53.6994 282.111 54.695 284.019 56.0224C286.01 57.2668 287.587 59.0505 288.748 61.3734C289.993 63.6134 290.615 66.6001 290.615 70.3334C290.532 75.3941 289.163 79.4593 286.508 82.5289C283.853 85.5156 280.41 87.6726 276.179 89C272.031 90.2444 267.51 90.8667 262.615 90.8667ZM335.467 90.8667C334.223 90.8667 332.398 90.7422 329.992 90.4933C327.586 90.2444 325.097 89.7052 322.525 88.8756C319.953 87.963 317.755 86.5941 315.929 84.7689L319.663 78.92V111.524H301.494V39.3469C301.494 36.6091 302.282 34.2861 303.858 32.378C305.435 30.4699 307.592 28.8936 310.33 27.6491C313.067 26.4047 316.22 25.4921 319.787 24.9114C323.438 24.2477 327.337 23.9158 331.485 23.9158C337.79 23.9158 343.307 24.9943 348.036 27.1514C352.848 29.2254 356.581 32.7513 359.236 37.7291C361.974 42.7069 363.343 49.5098 363.343 58.1379C363.343 64.609 362.223 70.3334 359.983 75.3112C357.743 80.206 354.549 84.0222 350.4 86.76C346.335 89.4978 341.358 90.8667 335.467 90.8667ZM329.992 75.9334C333.31 75.9334 336.048 75.3526 338.205 74.1912C340.362 73.0297 341.98 71.1216 343.058 68.4668C344.22 65.729 344.8 62.0786 344.8 57.5157C344.8 53.6994 344.386 50.4639 343.556 47.8091C342.726 45.1543 341.275 43.1217 339.201 41.7113C337.209 40.218 334.389 39.4713 330.738 39.4713C326.756 39.4713 323.894 39.8861 322.152 40.7158C320.492 41.4624 319.663 42.458 319.663 43.7024V73.3201C321.239 74.2327 322.981 74.8964 324.889 75.3112C326.798 75.726 328.498 75.9334 329.992 75.9334ZM392.162 89H373.744V2.26258H392.162V89ZM430.4 90.8667C426.584 90.8667 422.975 90.4933 419.574 89.7467C416.255 89.083 413.31 87.963 410.738 86.3867C408.249 84.7274 406.3 82.5289 404.889 79.7911C403.479 76.9704 402.774 73.486 402.774 69.3379C402.774 65.4386 403.562 62.0371 405.138 59.1335C406.798 56.2298 409.286 53.9898 412.605 52.4135C415.923 50.8372 420.113 50.049 425.174 50.049C427.994 50.049 430.732 50.3394 433.387 50.9202C436.042 51.5009 438.406 52.289 440.48 53.2846C442.637 54.2801 444.338 55.3587 445.583 56.5201L446.329 65.4801C444.67 64.4845 442.679 63.6964 440.356 63.1157C438.033 62.5349 435.544 62.2446 432.889 62.2446C428.824 62.2446 425.837 62.8668 423.929 64.1112C422.104 65.2727 421.192 67.1393 421.192 69.7112C421.192 71.2875 421.648 72.6978 422.56 73.9423C423.473 75.1867 424.676 76.1408 426.169 76.8045C427.746 77.4682 429.363 77.8 431.023 77.8C435.254 77.8 438.199 77.5097 439.858 76.9289C441.6 76.3482 442.471 75.1867 442.471 73.4445V50.2979C442.471 46.4817 441.227 43.7439 438.738 42.0846C436.332 40.3424 432.889 39.4713 428.409 39.4713C424.759 39.4713 421.067 40.135 417.334 41.4624C413.683 42.7069 410.697 44.2417 408.374 46.0668V29.6402C410.531 28.3128 413.849 27.0684 418.329 25.9069C422.892 24.7454 427.994 24.1647 433.636 24.1647C435.627 24.1647 437.826 24.3306 440.231 24.6625C442.637 24.9943 445.043 25.6166 447.449 26.5291C449.855 27.3588 452.054 28.6032 454.045 30.2625C456.119 31.9217 457.778 34.0373 459.023 36.6091C460.267 39.1809 460.889 42.375 460.889 46.1913L460.765 75.9334C460.765 79.5008 459.562 82.4045 457.156 84.6445C454.75 86.8015 451.266 88.3778 446.703 89.3733C442.223 90.3689 436.789 90.8667 430.4 90.8667ZM484.781 113.391C482.707 113.391 480.675 113.184 478.684 112.769C476.693 112.354 474.992 111.815 473.581 111.151V96.0933C474.909 96.5911 476.153 96.9229 477.315 97.0889C478.476 97.3377 479.679 97.4622 480.924 97.4622C482.998 97.4622 484.781 96.9644 486.275 95.9689C487.851 95.0563 489.137 93.4385 490.133 91.1155C491.128 88.8756 491.916 85.8059 492.497 81.9067L492.87 92.4844L465.866 26.0314H487.146L501.457 70.209H499.59L513.777 26.0314H533.688L508.924 89.9956C506.684 95.8029 504.236 100.407 501.581 103.809C499.01 107.21 496.313 109.658 493.493 111.151C490.672 112.644 487.768 113.391 484.781 113.391Z" fill="black"/>
</svg>
